icons-rebrand/svg/assign-privilege-bold.svg

<svg width="32" height="32" viewBox="0 0 32 32" fill="none" xmlns="http://www.w3.org/2000/svg">
<path d="M13.707 22.2931L8.707 17.2931C8.61475 17.1976 8.50441 17.1214 8.3824 17.069C8.2604 17.0166 8.12918 16.989 7.9964 16.9878C7.86362 16.9867 7.73194 17.012 7.60905 17.0623C7.48615 17.1125 7.3745 17.1868 7.2806 17.2807C7.18671 17.3746 7.11246 17.4862 7.06218 17.6091C7.0119 17.732 6.9866 17.8637 6.98775 17.9965C6.9889 18.1293 7.01649 18.2605 7.0689 18.3825C7.12131 18.5045 7.19749 18.6148 7.293 18.7071L10.586 22.0001H3C2.73478 22.0001 2.48043 22.1054 2.29289 22.293C2.10536 22.4805 2 22.7349 2 23.0001C2 23.2653 2.10536 23.5197 2.29289 23.7072C2.48043 23.8947 2.73478 24.0001 3 24.0001H10.586L7.293 27.2931C7.11084 27.4817 7.01005 27.7343 7.01233 27.9965C7.0146 28.2587 7.11977 28.5095 7.30518 28.6949C7.49059 28.8803 7.7414 28.9855 8.0036 28.9878C8.2658 28.99 8.5184 28.8892 8.707 28.7071L13.707 23.7071C13.8945 23.5196 13.9998 23.2652 13.9998 23.0001C13.9998 22.7349 13.8945 22.4806 13.707 22.2931Z" fill="#0F0F0F"/>
<path d="M21.9518 13.6618C23.0318 12.8376 23.8264 11.6957 24.2239 10.3965C24.6215 9.09736 24.6019 7.7063 24.168 6.41883C23.7342 5.13136 22.9078 4.01221 21.805 3.21866C20.7022 2.4251 19.3785 1.99705 18.0199 1.99464C16.6613 1.99223 15.3361 2.4156 14.2305 3.20524C13.125 3.99488 12.2946 5.1111 11.8562 6.39702C11.4177 7.68295 11.3933 9.07393 11.7862 10.3745C12.1791 11.675 12.9697 12.8198 14.0468 13.6478C13.1488 13.9418 12.2868 14.3378 11.4798 14.8278C11.2581 14.968 11.1003 15.1897 11.0405 15.445C10.9807 15.7004 11.0236 15.9691 11.16 16.1931C11.2965 16.4172 11.5154 16.5786 11.7698 16.6427C12.0241 16.7068 12.2935 16.6684 12.5198 16.5358C14.1716 15.5321 16.0679 15.0027 18.0008 15.0058C23.4218 15.0058 28.0008 19.1598 28.0008 24.0758C27.9868 24.4057 27.8984 24.7282 27.7422 25.0191C27.586 25.3101 27.366 25.5619 27.0988 25.7558C24.8888 27.6458 19.2038 28.5058 14.1548 27.7098C13.8927 27.6686 13.6251 27.7331 13.4106 27.8892C13.1962 28.0454 13.0525 28.2803 13.0113 28.5423C12.97 28.8044 13.0346 29.072 13.1907 29.2865C13.3468 29.5009 13.5817 29.6446 13.8438 29.6858C15.2056 29.8929 16.5813 29.9952 17.9588 29.9918C21.9518 29.9918 26.1818 29.1718 28.3988 27.2768C28.8862 26.8955 29.2829 26.4106 29.5599 25.8571C29.837 25.3037 29.9876 24.6956 30.0008 24.0768C30.0008 19.3468 26.5828 15.2078 21.9518 13.6618ZM18.0098 4.00682C18.6063 3.99793 19.1986 4.10774 19.7523 4.32987C20.306 4.552 20.81 4.88202 21.235 5.30071C21.66 5.71941 21.9975 6.21844 22.2279 6.76877C22.4582 7.31909 22.5768 7.90973 22.5768 8.50632C22.5768 9.10292 22.4582 9.69356 22.2279 10.2439C21.9975 10.7942 21.66 11.2932 21.235 11.7119C20.81 12.1306 20.306 12.4606 19.7523 12.6828C19.1986 12.9049 18.6063 13.0147 18.0098 13.0058C16.8163 13.0058 15.6717 12.5317 14.8278 11.6878C13.9839 10.8439 13.5098 9.6993 13.5098 8.50582C13.5098 7.31235 13.9839 6.16776 14.8278 5.32384C15.6717 4.47993 16.8163 4.00582 18.0098 4.00582V4.00682Z" fill="#0F0F0F"/>
</svg>

<svg width="32" height="32" viewBox="0 0 32 32" fill="none" xmlns="http://www.w3.org/2000/svg"><path d="M13.707 22.293l-5-5a1 1 0 1 0-1.414 1.414L10.586 22H3a1 1 0 0 0 0 2h7.586l-3.293 3.293a1 1 0 0 0 1.414 1.414l5-5a1 1 0 0 0 0-1.414z" fill="#0F0F0F"/><path d="M21.952 13.662a6.5 6.5 0 1 0-7.905-.014c-.898.294-1.76.69-2.567 1.18a1 1 0 0 0 1.04 1.708 10.522 10.522 0 0 1 5.481-1.53c5.421 0 10 4.154 10 9.07a2.19 2.19 0 0 1-.902 1.68c-2.21 1.89-7.895 2.75-12.944 1.954a1 1 0 0 0-.311 1.976 26.93 26.93 0 0 0 4.115.306c3.993 0 8.223-.82 10.44-2.715a4.176 4.176 0 0 0 1.602-3.2c0-4.73-3.418-8.869-8.049-10.415zM18.01 4.007a4.5 4.5 0 1 1 0 8.999 4.5 4.5 0 0 1 0-9z" fill="#0F0F0F"/></svg>
